packages/ffe-icons/icons/filled/sm/filter_7.svg

<svg xmlns="http://www.w3.org/2000/svg" height="20" viewBox="0 -960 960 960" width="20"><path d="M599.231-658.001 497.538-427.307q-5.692 12.768 1.616 23.037 7.307 10.269 20.756 10.269 7.243 0 13.512-3.653 6.269-3.654 9.115-10.731l107.615-244.539q.616-2.231 1.847-10.531v-20.355q0-11.149-7.51-18.669-7.51-7.52-18.49-7.52h-120q-11.069 0-18.534 7.404Q480-695.19 480-684.211q0 10.98 7.465 18.595 7.465 7.615 18.534 7.615h93.232Zm-284.923 398q-27.008 0-45.657-18.65-18.65-18.65-18.65-45.658v-455.382q0-27.008 18.65-45.658 18.649-18.65 45.657-18.65h455.383q27.007 0 45.657 18.65 18.65 18.65 18.65 45.658v455.382q0 27.008-18.65 45.658-18.65 18.65-45.657 18.65H314.308ZM190.309-136.003q-27.007 0-45.657-18.65-18.65-18.65-18.65-45.657v-481.382q0-11.069 7.405-18.534 7.404-7.465 18.384-7.465 10.979 0 18.595 7.465 7.615 7.465 7.615 18.534v481.382q0 4.616 3.846 8.462 3.847 3.847 8.462 3.847h481.382q11.069 0 18.534 7.404 7.466 7.405 7.466 18.384 0 10.98-7.466 18.595-7.465 7.615-18.534 7.615H190.309Z"/></svg>

<svg xmlns="http://www.w3.org/2000/svg" height="20" viewBox="0 -960 960 960" width="20"><path d="M599.23-658 497.54-427.31q-5.69 12.77 1.61 23.04Q506.46-394 519.91-394q7.24 0 13.51-3.65 6.27-3.66 9.12-10.74l107.61-244.53q.62-2.23 1.85-10.53v-20.36q0-11.15-7.51-18.67Q636.98-710 626-710H506q-11.07 0-18.53 7.41-7.47 7.4-7.47 18.38 0 10.98 7.47 18.59Q494.93-658 506-658h93.23ZM314.31-260q-27.01 0-45.66-18.65Q250-297.3 250-324.31v-455.38q0-27.01 18.65-45.66Q287.3-844 314.31-844h455.38q27.01 0 45.66 18.65Q834-806.7 834-779.69v455.38q0 27.01-18.65 45.66Q796.7-260 769.69-260H314.31Zm-124 124q-27.01 0-45.66-18.65Q126-173.3 126-200.31v-481.38q0-11.07 7.41-18.54 7.4-7.46 18.38-7.46 10.98 0 18.6 7.46 7.61 7.47 7.61 18.54v481.38q0 4.62 3.85 8.46 3.84 3.85 8.46 3.85h481.38q11.07 0 18.54 7.4 7.46 7.41 7.46 18.39t-7.46 18.59q-7.47 7.62-18.54 7.62H190.31Z"/></svg>
